X:1
T:Title
%%score { ( 1 3 ) | 2 }
L:1/8
M:4/4
K:C
V:1 treble nm="Grand Piano"
V:3 treble 
V:2 bass 
V:1
 z4 z2[Q:1/4=100] [CE][DF] | [EG][EG][EG][EG] [EG]2 [Ec][EB] | d2 A2 A2 [^FA][Fc] | BBBB BBFG | %4
 [EA]2 E2 E2 E[DF] | [EG][EG][EG][EG] [EG]2 [Ec][EB] | [Fd]2 [CFA]2 [CFA]2 [D^FA][DAc] | %7
 [DGB][DGB][DGB][DAc] [DBd][DGB][EGA][EAc] |[M:7/8] [DGB]2 [C^FA]2 [B,G]3 |[M:1/4] GG | %10
[M:4/4] e2 e2 c2 z2 | d2 A2 z4 | BBBc BA[EG][DF] | [CE]2 [FA]2 [EG]2 [EG][EG] | e2 e2 c2 z2 | %15
 d2 d2 z4 | BBBB BBAB |[M:3/4] [Ec]2 [Fc]2 [Ec]2 |] %18
V:2
 z4 z2 [C,G,][C,G,] | [C,C][C,C][C,C][C,C] [C,C]2 [C,G,][C,G,] | %2
 [F,A,F]2 [F,CF]2 [F,CF]2 [D,D][D,D] | [G,DF][G,DF][G,DF][G,DF] [G,DF][G,DF][G,B,D][G,B,F] | %4
 [C,C]2 [C,G,C]2 [C,G,C]2 [C,G,C][C,G,] | [C,C][C,C][C,C][C,C] [C,C]2 [C,G,][C,G,] | %6
 [F,A,]2 F,2 F,2 D,^F, | G,G,G,G, G,G,C,C, |[M:7/8] D,2 D,2 G,3 |[M:1/4] G,G, | %10
[M:4/4] [C,C][C,C][C,C][C,C] [C,G,][C,G,][D,G,][E,C] | %11
 [F,A,F][F,A,][F,DF][F,D] [F,DF]2 [D,D][D,D] | %12
 [G,DG][G,DG][G,DF][G,CE] [G,DF][G,DF][K:bass][G,,G,][G,,G,] | [C,G,]2 [C,C]2 [C,C]2 [C,C][C,C] | %14
 [C,C][C,C][C,C][C,C] [C,G,][C,G,][D,G,][E,C] | [F,A,F][F,A,][F,A,F][F,A,] [F,DF]2 [D,D][D,D] | %16
 [G,DF][G,DF][G,DF][G,DF] [G,DF][G,DF][G,DF][G,F] |[M:3/4][K:bass] [C,G,]2 [C,A,]2 [C,G,]2 |] %18
V:3
 x8 | x8 | x8 | x8 | x8 | x8 | x8 | x8 |[M:7/8] x7 |[M:1/4] x2 |[M:4/4] GGGG EE[FB][Gc] | %11
 z F z F A2 [^FA][Ac] | x8 | x8 | GGGG EE[FB][Gc] | z F z F A2 [^FA][Fc] | x8 |[M:3/4] x6 |] %18

